X:11230
T:Morse Avenue
C:Liz Carroll
R:reel
D:Nomos: I Won't Be Afraid Any More
D:Sean Smyth: The Blue Fiddle
Z:id:hn-reel-611
M:C|
K:D
d2dA BAFE|DEFA BAFA|BF~F2 BFBd|AB~B2 defe|
d2dA BAFE|DEFA BAFA|dedA BAFB|AFEF DEFA:|
dffe ~f3g|fedf edBA|dffe fede|faag agfe|
dffe ~f3g|fedf edBc|~d3A BAFB|AFEF DEFA|
dffe ~f3g|fedf edBA|dffe fede|faag a2fa|
bafb afeg|fedf edBc|~d3A BAFB|AFEF DEFA||
